src/icons/icons_set_01/060-favoris.svg

<svg height="140" viewBox="0 0 140 140" width="140" xmlns="http://www.w3.org/2000/svg"><path d="m76.1712173 29.0926244c4.6471269-3.9893674 10.3482734-6.2136877 17.2768971-6.2136877 8.6010126 0 18.4900996 4.6966244 24.1985946 12.2130584 7.055767 9.2904014 7.345521 21.6309945-.588806 35.557736-11.066078 19.4237557-26.20285 34.5534869-45.3776799 45.3523419-.374476.210897-.7969972.321693-1.2267759.321693h-.2267237c-.4297793 0-.8523009-.110797-1.2267772-.321694-19.3030959-10.871107-34.6103634-26.0550318-45.6044027-45.3523409-7.9343262-13.9267415-7.6445724-26.2673346-.5888053-35.557736 5.7084947-7.516434 15.5975812-12.2130584 24.1985943-12.2130584 6.9286237 0 12.6297702 2.2243203 17.2768971 6.2136877 2.34957 2.0170093 4.1952785 4.2031899 5.9444938 6.86779 1.7492153-2.6646001 3.5949238-4.8507807 5.9444938-6.86779zm36.5422747 39.0820137c6.981253-12.2538591 6.742233-22.4337005.951386-30.0585684-4.743116-6.2453098-13.148192-10.237133-20.2167636-10.237133-5.7017056 0-10.2574159 1.7774247-14.0200629 5.0075026-2.7956257 2.3999297-4.8091222 5.1813509-7.0177408 9.1429903-.9534367 1.7101968-3.4137377 1.7101968-4.3671744 0-2.2086186-3.9616394-4.2221151-6.7430606-7.0177408-9.1429903-3.762647-3.2300779-8.3183573-5.0075026-14.0200629-5.0075026-7.068572 0-15.473648 3.9918232-20.216764 10.237133-5.7908468 7.6248679-6.0298668 17.8047093.9513868 30.0585684 10.3321486 18.1355241 24.6088611 32.4559629 42.5999919 42.8360529 17.8548607-10.306578 31.9691447-24.5737108 42.3735447-42.8360529z"/></svg>

<?xml version="1.0" encoding="UTF-8"?>
<svg width="140px" height="140px" viewBox="0 0 140 140" version="1.1" xmlns="http://www.w3.org/2000/svg" xmlns:xlink="http://www.w3.org/1999/xlink">
    <!-- Generator: Sketch 55 (78076) - https://sketchapp.com -->
    <title>061-favoris</title>
    <desc>Created with Sketch.</desc>
    <g id="061-favoris" stroke="none" stroke-width="1" fill="none" fill-rule="evenodd">
        <path d="M76.1712173,29.0926244 C80.8183442,25.103257 86.5194907,22.8789367 93.4481144,22.8789367 C102.049127,22.8789367 111.938214,27.5755611 117.646709,35.0919951 C124.702476,44.3823965 124.99223,56.7229896 117.057903,70.6497311 C105.991825,90.0734868 90.855053,105.203218 71.6802231,116.002073 C71.3057471,116.21297 70.8832259,116.323766 70.4534472,116.323766 L70.2267235,116.323766 C69.7969442,116.323766 69.3744226,116.212969 68.9999463,116.002072 C49.6968504,105.130965 34.3895829,89.9470402 23.3955436,70.6497311 C15.4612174,56.7229896 15.7509712,44.3823965 22.8067383,35.0919951 C28.515233,27.5755611 38.4043195,22.8789367 47.0053326,22.8789367 C53.9339563,22.8789367 59.6351028,25.103257 64.2822297,29.0926244 C66.6317997,31.1096337 68.4775082,33.2958143 70.2267235,35.9604144 C71.9759388,33.2958143 73.8216473,31.1096337 76.1712173,29.0926244 Z M112.713492,68.1746381 C119.694745,55.920779 119.455725,45.7409376 113.664878,38.1160697 C108.921762,31.8707599 100.516686,27.8789367 93.4481144,27.8789367 C87.7464088,27.8789367 83.1906985,29.6563614 79.4280515,32.8864393 C76.6324258,35.286369 74.6189293,38.0677902 72.4103107,42.0294296 C71.456874,43.7396264 68.996573,43.7396264 68.0431363,42.0294296 C65.8345177,38.0677902 63.8210212,35.286369 61.0253955,32.8864393 C57.2627485,29.6563614 52.7070382,27.8789367 47.0053326,27.8789367 C39.9367606,27.8789367 31.5316846,31.8707599 26.7885686,38.1160697 C20.9977218,45.7409376 20.7587018,55.920779 27.7399554,68.1746381 C38.072104,86.3101622 52.3488165,100.630601 70.3399473,111.010691 C88.194808,100.704113 102.309092,86.4369802 112.713492,68.1746381 Z" id="Path" fill="#000000" fill-rule="nonzero"></path>
    </g>
</svg>
